favicon.svg

<svg width="500" height="500" fill="none" xmlns="http://www.w3.org/2000/svg"><path fill-rule="evenodd" clip-rule="evenodd" d="m440.206 249.329-15.262 15.569c-.395.463-.541 1.059-.972 1.499a25.257 25.257 0 0 1-36.218 0c-9.999-10.201-9.999-26.74 0-36.941.41-.41.943-.544 1.367-.925l11.176-11.409c22.483-22.937 22.483-60.117 0-83.054l-36.269-37c-22.483-22.938-58.927-22.938-81.41 0l-61.676 62.92c-22.483 22.937-22.483 60.117 0 83.054l34.412 35.107c.592.5 1.323.701 1.871 1.268 9.89 10.089 9.89 26.457 0 36.546a24.975 24.975 0 0 1-35.8.015c-.037.044-.088.089-.132.134l-40.479-41.296c-39.718-40.52-39.718-106.215 0-146.736l70.272-71.69c39.718-40.52 104.113-40.52 143.831 0l45.289 46.203c39.725 40.513 39.725 106.208 0 146.736ZM136.973 402.238c22.484 22.938 58.928 22.938 81.411 0l61.676-62.92c22.483-22.938 22.483-60.117 0-83.055l-34.412-35.106c-.593-.5-1.316-.701-1.872-1.268-9.896-10.089-9.896-26.457 0-36.546a24.974 24.974 0 0 1 35.794-.015c.036-.045.088-.089.131-.134l40.479 41.296c39.719 40.52 39.719 106.215 0 146.735l-70.271 71.69c-39.719 40.521-104.113 40.521-143.832 0l-45.288-46.202c-39.719-40.521-39.719-106.215 0-146.736l15.262-15.57c.394-.469.54-1.058.972-1.498a25.256 25.256 0 0 1 36.217 0c9.999 10.201 9.999 26.74 0 36.941-1.03 1.051-2.339 1.528-3.486 2.356.109.134.248.224.358.358l-9.422 9.612c-22.483 22.937-22.483 60.117 0 83.054l36.283 37.008Z" fill="url(#a)"/><defs><linearGradient id="a" x1="31" y1="26" x2="470" y2="26" gradientUnits="userSpaceOnUse"><stop stop-color="#0DF"/><stop offset="1" stop-color="#FF00D4"/></linearGradient></defs></svg>

<svg width="500" height="500" viewBox="0 0 500 500" fill="none" xmlns="http://www.w3.org/2000/svg">
<path fill-rule="evenodd" clip-rule="evenodd" d="M440.206 249.329L424.944 264.898C424.549 265.361 424.403 265.957 423.972 266.397C413.973 276.598 397.753 276.598 387.754 266.397C377.755 256.196 377.755 239.657 387.754 229.456C388.164 229.046 388.697 228.912 389.121 228.531L400.297 217.122C422.78 194.185 422.78 157.005 400.297 134.068L364.028 97.0674C341.545 74.1301 305.101 74.1301 282.618 97.0674L220.942 159.988C198.459 182.925 198.459 220.105 220.942 243.042L255.354 278.149C255.946 278.649 256.677 278.85 257.225 279.417C267.115 289.506 267.115 305.874 257.225 315.963C247.336 326.044 231.321 326.052 221.425 315.978C221.388 316.022 221.337 316.067 221.293 316.112L180.814 274.816C141.096 234.296 141.096 168.601 180.814 128.08L251.086 56.3903C290.804 15.8699 355.199 15.8699 394.917 56.3903L440.206 102.593C479.931 143.106 479.931 208.801 440.206 249.329ZM136.973 402.238C159.457 425.176 195.901 425.176 218.384 402.238L280.06 339.318C302.543 316.38 302.543 279.201 280.06 256.263L245.648 221.157C245.055 220.657 244.332 220.456 243.776 219.889C233.88 209.8 233.88 193.432 243.776 183.343C253.659 173.261 269.68 173.261 279.57 183.328C279.606 183.283 279.658 183.239 279.701 183.194L320.18 224.49C359.899 265.01 359.899 330.705 320.18 371.225L249.909 442.915C210.19 483.436 145.796 483.436 106.077 442.915L60.7889 396.713C21.0704 356.192 21.0704 290.498 60.7889 249.977L76.0507 234.407C76.4454 233.938 76.5915 233.349 77.0228 232.909C87.0219 222.708 103.241 222.708 113.24 232.909C123.239 243.11 123.239 259.649 113.24 269.85C112.21 270.901 110.901 271.378 109.754 272.206C109.863 272.34 110.002 272.43 110.112 272.564L100.69 282.176C78.2069 305.113 78.2069 342.293 100.69 365.23L136.973 402.238Z" fill="url(#paint0_linear_69_5)"/>
<defs>
<linearGradient id="paint0_linear_69_5" x1="31" y1="26" x2="470" y2="26" gradientUnits="userSpaceOnUse">
<stop stop-color="#00DDFF"/>
<stop offset="1" stop-color="#FF00D4"/>
</linearGradient>
</defs>
</svg>
